icons/sort-asc-16.svg

<svg xmlns="http://www.w3.org/2000/svg" width="16" height="16" viewBox="0 0 16 16">
  <defs/>
  <path d="M12.927,2.573 L15.927,5.573 C15.999,5.645 16.02,5.752 15.981,5.846 C15.943,5.939 15.851,6 15.75,6 L13.5,6 L13.5,12.75 C13.5,13.164 13.164,13.5 12.75,13.5 C12.336,13.5 12,13.164 12,12.75 L12,6 L9.75,6 C9.649,6 9.557,5.939 9.519,5.846 C9.48,5.752 9.501,5.645 9.573,5.573 L12.573,2.573 C12.62,2.526 12.684,2.5 12.75,2.5 C12.816,2.5 12.88,2.526 12.927,2.573 Z M0,12.25 C0,11.836 0.336,11.5 0.75,11.5 L8.25,11.5 C8.664,11.5 9,11.836 9,12.25 C9,12.664 8.664,13 8.25,13 L0.75,13 C0.336,13 0,12.664 0,12.25 Z M0,8.25 C0,7.836 0.336,7.5 0.75,7.5 L5.25,7.5 C5.664,7.5 6,7.836 6,8.25 C6,8.664 5.664,9 5.25,9 L0.75,9 C0.336,9 0,8.664 0,8.25 Z M0,4.25 C0,3.836 0.336,3.5 0.75,3.5 L3.25,3.5 C3.664,3.5 4,3.836 4,4.25 C4,4.664 3.664,5 3.25,5 L0.75,5 C0.336,5 0,4.664 0,4.25 Z"/>
</svg>

<svg xmlns="http://www.w3.org/2000/svg" width="16" height="16" viewBox="0 0 16 16"><path d="M12.927 2.573l3 3A.25.25 0 0115.75 6H13.5v6.75a.75.75 0 01-1.5 0V6H9.75a.25.25 0 01-.177-.427l3-3a.25.25 0 01.354 0zM0 12.25a.75.75 0 01.75-.75h7.5a.75.75 0 010 1.5H.75a.75.75 0 01-.75-.75zm0-4a.75.75 0 01.75-.75h4.5a.75.75 0 010 1.5H.75A.75.75 0 010 8.25zm0-4a.75.75 0 01.75-.75h2.5a.75.75 0 010 1.5H.75A.75.75 0 010 4.25z"/></svg>
